X: 5791
T: Caitriona's Fancy
R: jig
M: 6/8
K: Gmajor
DGG FGA|~B3 cAG|FDD GED|FDD D2E|
DGG FGA|~B3 cAG|FDD DEF|1 GAF G2E:|2 GAF GAB||
|:~c3 cAG|E/F/GA cAG|FDD GED|FDD DAB|
~c3 cAG|E/F/GA cAG|FDD DEF|1 GAF GAB:|2 GAF G2E||

